X:1
T:James Gibb editions
T:Laetamini in Domino - Foggia
T:#
%%score [ 1 2 3 4 ]
L:1/8
Q:1/4=108
M:4/4
K:A
V:1 treble nm="SOP."
V:2 treble nm="ALT."
V:3 treble-8 nm="Tenor" snm="T"
V:4 bass nm="Bass" snm="B"
V:1
"^allegro""^Laetamini in Domino""^Francesco  Foggia\n(1603-88)"!f! B4 A3 A |"^'""^," G2 E2 (FGAB | %2
w: Lae- ta- mi-|ni in Do\- * * *|
 cdec defe | dcdB cd ed/c/ | B2) c2 d4 |[M:4/4] z2 e2 d3 d |"^," c4 B4- | B2 B4 ^A2 | B4 z2 B2 | %9
w: ||* mi- no,|lae- ta- mi-|ni in|* Do- mi-|no, lae-|
 =A3 A"^," G2 E2 | (FGAB cdec | d2 B2"^," c4 | (B3 G) A3 A | G3 A"^," B4) | e4 d3 d | %15
w: ta- mi- ni in|Do\- * * * * * * *|* mi- no,|lae\- * ta- mi-|ni, * *|lae- ta- mi-|
"^," c4 B2 (ed/c/ | d2 c2 B3) B |"^," A2 A2 c2 e2 | !>!e2 ^d2 e4- | e2 c2 =d4 | e2 A2 A2 G2 | A8 | %22
w: ni in Do\- * *|* * * mi-|no, et ex- ul-|ta- te ju\-|* sti, et|ex- ul- ta- te|ju-|
"^," B2 c2 c2 e2 | e2 ^d2 e2 B2 | z4 E4 | F2 F2 A3 G | B2 B2 z2 E2 | F2 F2 A3 G | B8- | B4 G2 G2 | %30
w: sti, et ex- ul-|ta- te ju- sti,|et|ex- ul- ta- te|ju- sti, et|ex- ul- ta- te|ju\-|* sti et|
 (cBAG F2) A2 | A2 G2"^," A2 e2 | d2 c2 (f2 e2- | ed/c/ d4) c2 |"^," d2 D2 E2 F2 | %35
w: glo\- * * * * ri-|a- mi- ni, et|glo- ri- a\- *|* * * * mi-|ni, et glo- ri-|
 =G3 G"^," F2 A2 | d3 c (BA A2- | A2) G2"^," A2 c2 | (d3 c B)A A2- | A2 G2"^," A2 !>!c2- | %40
w: a- mi- ni, et|glo- ri- a\- * *|* mi- ni, et|glo\- * * ri- a\-|* mi- ni o\-|
 c2 d2 e4 | d4 B2"^," A2 | d4 e4 | d2 A2 (A3 B | c2!>(! BA B4)!>)! | c4 z4 | z8 | z2 A2 d3 c | %48
w: * mnes re-|cti cor- de,|o- mnes|re- cti cor\- *||de,||et glo- ri-|
 (B"^,"A A4) G2 |"^," A2 c2 d2 B2- | BA A2 B2 E2- | EG G2 F4 | z2 c2 d2 B2 | BA A2"^," B2!mf! B2 | %54
w: a\- * * mi-|ni o- mnes re\-|* cti cor- de, re\-|* cti cor- de|et o- mnes|re- cti cor- de. o-|
 c2"^rit." A4[Q:1/4=106] G2 |[Q:1/4=103] (A3[Q:1/4=101] G[Q:1/4=99] F2[Q:1/4=97] G[Q:1/4=96]A | %56
w: mnes re- cti|cor\- * * * *|
[Q:1/4=94]!>(! B4)!>)![Q:1/4=92] !fermata!B4 ||"^At Easter" z2"^a tempo"!f! e2 c2 e2 | %58
w: * de.|Al- le- lu-|
 (dcBA"^," B2) c2 | B2 B2 (cBcd |"^," e4) A4 | d2 f2"^," e2 c2 | d2 e2 A4 | z2 B2 G2 B2 | %64
w: ja, * * * * al-|le- lu- ja, * * *|* al-|le- lu- ja, al-|le- lu- ja,|al- le- lu-|
 (AGFE"^," F2) G2 | F2 F2"^," E2 e2 | c2 e2"^," d2 d2 | B2 d2"^," c2 f2 | e2 e2 f4- | f4 z2 (e2 | %70
w: ja, * * * * al-|le- lu- ja, al-|le- lu- ja, al-|le- lu- ja, al-|le- lu- ja,|* al\-|
 f2) e4 ^d2 | e8 | z8 | z2 B2 G2 B2 | (AGFE"^," F2) G2 | F2 F2"^," E4 | E4 A2 c2 | %77
w: * le- lu-|ja,||al- le- lu-|ja, * * * * al-|le- lu- ja,|al- le- lu-|
"^," B2 G2 A2 B2 |"^," E2 e4 d2 | c4"^," B4 | A4 G3 G |"^," A2 F2 F2 ^E2 |"^," F4 =G2 F2- | %83
w: ja, al- le- lu-|ja, al- le-|lu- ja,|al- le- lu-|ja, al- le- lu-|ja, al- le\-|
 F2 E2"^," F2 f2 | d2 f2"^," e2 e2 | c2 A2"^," B2"^lento"[Q:1/4=88] B2 | c4 B4 | %87
w: * lu- ja, al-|le- lu- ja, al-|le- lu- ja, al-|le- lu-|
!>(! !fermata!B8!>)! |] %88
w: ja-|
V:2
"^u" z8 |!f! E4 D3 D |"^," C2 A,2 (B,CDE | FEFG AGEF | G4) F4 |[M:4/4]"^," E4 B4 | A3 A"^," G4 | %7
w: |Lae- ta- mi-|ni in Do\- * * *||* mi-|no, lae-|ta- mi- ni|
 F2 (!>!G3 F E2- | E2) ^D2 (E3 =D | CB,CD EF G2) | z4 z2 E2 | D3"^," D C2 A,2 | (B,A,G,B, A,B,CD | %13
w: in Do\- * *|* mi- no, *||lae-|ta- mi- ni in|Do\- * * * * * * *|
 EF G2 F3 G | A3 G"^," F2 B2 | A3 A)"^," G2 E2 | (FG A4) G2 |"^," A4 E4 | F2 A2 A2 G2 | %19
w: ||* mi- no in|Do\- * * mi-|no, et|ex- ul- ta- te|
 (!>!A3 G F4 | E4)"^," D4 | E4 F2 A2 | A2 G2 A4 |"^," F4 E4 | F2 F2 A2 G2 | B2"^," B,2 E4 | %26
w: ju\- * *|* sti,|et ex- ul-|ta- te ju-|sti, et|ex- ul- ta- te|ju- sti, et|
 F2 F2 A2 G2 | B2 B,2 E4 | F3 B G3 E | F4 E4 | z2 C2 D2 E2 | F2 B,2 E4 | z2 E2 D2 C2 | F3 F E2 E2 | %34
w: ex- ul- ta- te|ju- sti, et|ex- ul- ta- te|ju- sti|et glo- ri-|a- mi- ni,|et glo- ri-|a- mi- ni, et|
 (=G3 F E)B, D2- | D2 C2"^," D2 F2 | (A3 ^G F2) E2 | D3 D"^," C2 E2 | (A3 G F2) E2 | %39
w: glo\- * * ri- a\-|* mi- ni, et|glo\- * * ri-|a- mi- ni, et|glo\- * * ri-|
 D3 D"^," C2 !>!E2 | F2 D4 !>!C2 | D4 E4 | z4 z2 E2 | F2 D4 C2 |!>(! E8!>)! |"^," C2 E2 (=G3 F | %46
w: a- mi- ni o-|mnes re- cti|cor- de,|o-|mnes re\-- cti|cor-|de, et glo\- *|
 E)D D4 C2 |"^," D2 F2 A3 G | (F2 E2 D3) D | E4 z4 | z4 B,4 | C2 E4 ^D2 | E4 =D4 | z4 z2!mf! E2- | %54
w: * ri- a- mi-|ni, et glo- ri-|a\- * * mi-|ni|o-|mnes re- cti|cor- de,|o\-|
"^rit." E2 F2 D4- | D2"^," C2 (^D2 E2- |!>(! E2 ^D2)!>)! !fermata!E4 || z4 z2!f! A2 | %58
w: * mnes re\-|* cti cor\- *|* * de.|Al-|
 F2 A2"^," G2 A2 | B2 G2"^," A2 E2 | C2 E2"^," D2 C2 | B,2 D2"^," C2 E2 | (F2 E4) ^D2 | (EFGA B4) | %64
w: le- lu- ja, al-|le- lu- ja, al-|le- lu- ja, al-|le- lu- ja, al-|le\- * lu-|ja, * * * *|
 z8 | z8 | z2 A2 F2 A2 |"^," =G2 F2 A4 | =G2 E2 z2 A,2 | D2 F2"^," E2 C2 | D2 E2 A,4 | %71
w: ||al- le- lu-|ja, al- le-|lu- ja, al-|le- lu- ja, al-|le- lu- ja,|
 z2 B2 G2 B2 | (AGFE"^," F2) E2 | F2 F2 E4 | z8 | z2 B2 G2 B2 |"^," A2 G2 F2 A2 | G4 z4 | %78
w: al- le- lu-|ja, * * * * al-|le- lu- ja,||al- le- lu-|ja, al- le- lu-|ja,|
 z4 z2 B2 | A4 (G4 | A2 F4 ^E2 |"^," F2 A2 G4 | F2 D2 C4 | B,2) z2 z4 | z2 B2 G2 B2 | %85
w: al-|le- lu\-||ja, al- le-|lu- * ja,||al- le- lu-|
 (A3"^," E) F2 G2 | F8 |!>(! !fermata!G8!>)! |] %88
w: ja, * al- le-|lu-|ja.|
V:3
 z8 | z8 | z8 |!f! B4 A3 A |"^," G2 E2 (FGAB |[M:4/4][K:treble-8] cdec de f2- | f2) f4 e2- | %7
w: |||Lae- ta- mi-|ni in Do\- * * *||* mi- no,|
"^," e2 ^d2 (e4 | f3) f"^," e2 E2 | (FGAB cdec | defd e2 c2 | B3 B e4- | e4 z4 | e4 d3 d | %14
w: * in Do\-|* mi- no, in|Do\- * * * * * * *||* mi- no,||lae- ta- mi-|
"^," c2 A2 (Bcde | fe/d/ cd e2) c2 |"^," B2 A2 e3 e | c4 z4 | z4 B4 | c2 e2 d2"^," D2 | A4 B2 d2 | %21
w: ni in Do\- * * *|* * * * * * mi-|no, in Do- mi-|no,|et|ex- ul- ta- te,|et ex- ul-|
 d2 c2 d3 c | B4) A4 | z8 | B4 c2 e2 | e2 ^d2 e2"^," c2 | B4 c2 e2 | e2 ^d2 e2 c2 | %28
w: ta- te ju\- *|* sti,||et ex- ul-|ta- te ju- sti,|et ex- ul-|ta- te ju- sti,|
 BB f3 e (!>!e2- | e2 ^d2 e4) | z2 A2 B2 c2 | d3 d c4 | z2 A2 B2 c2 | d3 d"^," A2 e2 | %34
w: ex- ul- ta- te ju\-|* * sti|et glo- ri-|a- mi- ni,|et glo- ri-|a- mi- ni, et|
 (d3 c B2) A2 | B2 =G2"^," A2 d2 | (f3 e d2) c2 | B3 B A4 | z8 | z4 z2 !>!A2- | A2 B2 G2 !>!A2 | %41
w: glo\- * * ri-|a- mi- ni, et|glo\- * * ri-|a- mi- ni||o\-|* mnes re- cti|
 (FD d4)"^," c2 | A2 B2 G2 A2 | (D3 E F4 |!>(! E8)!>)! | A2"^," c2 (d3 c | B2) A2 =G3 G | %47
w: cor\- * * de,|o- mnes re- cti|cor\- * *||de, et glo\- *|* ri- a- mi-|
 A2"^," d2 f3 e | (d2 c2 B3) B |"^," A4 B4 | c2 !>!A4 G2 | A2 E2 z4 | z4 B4 |"^," c2!mf! A4 G2 | %54
w: ni, et glo- ri-|a\- * * mi-|ni o-|mnes re- cti|cor- de,|o-|mnes re- cti|
"^rit." A4 F2 B2 | e2 A4 G2 |!>(! F4!>)! !fermata!G4 ||!f! A8 | d2 f2"^," e2 c2 | d2 e2 A4- | %60
w: cor- de, o-|mnes re- cti|cor- de,|Al-|le- lu~ ja, al-|le- lu- ja,|
 A4 z4 | z8 | z8 | E8 | A2 c2"^," B2 G2 | A2 B2"^," E4 | A4 d2 f2 |"^," e2 d2 e2 !>!d2- | %68
w: |||al-|le- lu- ja. al-|le- lu- ja,|al- le- lu-|ja, al- le- lu\-|
 d2"^," c2 d2 d2 | B2"^," d2 c2 A2- | A2 G2 (F4 | EFGA"^," B2) e2 | c2 e2"^," ^d2 e2 | %73
w: * ja, al- le-|lu- ja, al- le\-|* lu- ja,|* * * * * al-|le- lu- ja, al-|
 e2 ^d2"^," e2 E2 | A2 c2"^," B2 G2 | A2 B2"^," E2 e2 | c2 e2"^," =d2 c>d | e3 d c2 !>!B2- | %78
w: le- lu- ja, al-|le- lu- ja, al-|le- lu- ja, al-|le- lu- ja, al- le-|lu- ja, al- le\-|
 B2 ^A2"^," B2 d2 | e2 f2 (B3 A/B/ | c4 z4) | z2 A2 B2 c2 |"^," F2 B4 A2 | =G4"^," F4 | %84
w: * lu- ja, al-|le- lu- ja, * *||al- le- lu-|Ja, al- le|lu- ja,|
 B4 e2 !courtesy!^g2 |"^," a2 e2 ^d2 (e2- | e4 ^d4) |!>(! !fermata!e8!>)! |] %88
w: al- le- lu-|ja, al- le lu\-||ja.|
V:4
 z8 | z8 | z8 | z8 |!f! E,4 D,3 D, |[M:4/4]"^," C,2 A,,2 (B,,C,D,E, | F,G,A,F, G,3 A, | B,4 C4 | %8
w: ||||Lae- ta- mi-|ni in Do\- * * *|||
 B,3 B,) E,4 | z4 E4 | D3 D C4 | z2 B,2 A,3 A, | G,2"^," E,2 (F,G,A,B, | CD E2 B,3) B, | A,4 z4 | %15
w: * mi- no,|lae-|ta- mi- ni,|lae- ta- mi-|ni in Do\- * * *|* * * * mi-|no,|
 z8 | z4 E,4 | F,2 A,2 A,2 G,2 | F,4"^," E,4 | A,4 B,2 D2 | D2 C2 (D2 B,2) | A,4 z4 | z8 | %23
w: |et|ex- ul- ta- te|jus- ti,|et ex- ul-|ta- te ju\- *|sti,||
 B,4 C2 E2 | E2 ^D2 E2"^," C2 | B,4 C2 E2 | E2 ^D2 E2"^," C2 | B,4 C2 E2 | E2 ^D2 E2"^," E,2 | %29
w: et ex- ul-|ta- te ju- sti,|et ex- ul-|ta- te ju- sti,|et ex- ul-|ta- te ju- sti|
 B,4 (C3 B, | A,G,F,E, D,2) C,2 | B,,3 B,,"^," A,,2 A,2 | B,2 C2 D2 A,2 | B,4 z2 A,2 | %34
w: et glo\- *|* * * * * ri-|a- mi- ni, et|glo- ri- a- mi-|ni, et|
 (B,3 A, =G,2) F,2 | E,2 E,2 D,4 | z8 | z4 z2 A,2 | F,3 E, (D,2 C,2 | B,,3) B,, A,,4 | %40
w: glo\- * * ri-|a- mi- ni,||et|glo- ri- a\- *|* mi- ni|
 z4 z2 !>!A,2- | A,2 B,2 G,2 A,2 | (F,D, D4 C2) | D4"^," A,2 F,2 | G,G,!>(! (A,4 G,2)!>)! | %45
w: o\-|* mnes re- cti|cor\- * * *|de, o- mnes|re- cti cor\- *|
 A,2"^," A,2 (B,3 A, | =G,2) F,2 E,3 E, | D,4 z4 | z4 z2 !>!B,2 | C2 !>!A,4 G,2 | A,4 E,4 | %51
w: de, et glo\- *|* ri- a- mi-|ni|o-|mnes re- cti|cor- de,|
 z4 B,4 | C2 !>!A,4 G,2 | A,4"^," E,4 |!mf!"^rit." A,,4 B,,4 | A,,3 A,, B,,4- | %56
w: o-|mnes re- cti|cor- de,|o- mnes|re- cti cor\-|
!>(! B,,4!>)! !fermata!E,4 || z8 | z8 | z8 | z2!f! A,2 F,2 A,2 |"^," =G,2 F,2 A,4- | A,2 ^G,2 F,4 | %63
w: * de.||||Al- le- lu-|ja, al- le\-|* lu- ja,|
 z4 z2 E2 | C2 E2"^," ^D2 E2 | E2 ^D2 E4 | z4 D,4 | =G,2 B,2"^," A,2 F,2 | =G,2 A,2 D,4 | z8 | z8 | %71
w: al-|lo- lu- ja, al-|le- lu- ja,|al-|le- lu- ja, al-|le- lu- ja,|||
 E,8 | A,2 C2"^," B,2 G,2 | A,2 B,2"^," E,2 E2 | C2 E2"^," ^D2 E2 | E2 ^D2 E4 | z8 | z2 E,4 D,2 | %78
w: al-|le- lu- ja, al-|le- lu- ja, al-|le- lu- ja, al-|le- lu- ja,||al- le-|
 C,4 B,,4 | z8 | z2 A,2 B,2 C2 | F,4 z4 | z8 | z8 | z4 E,4 | A,2 C2"^," B,2 G,2 | A,4 B,4 | %87
w: lu- ja,||al- le- lu-|ja,|||al-|le- lu- ja, al-|le- lu-|
!>(! !fermata!E,8!>)! |] %88
w: ja.|

